build/assets/img/svg/icon-marker.svg

<svg width="11" height="16" viewBox="0 0 11 16" fill="none" xmlns="http://www.w3.org/2000/svg">
<path fill-rule="evenodd" clip-rule="evenodd" d="M5.48708 0.670398C2.82523 0.670398 0.692788 2.66801 0.692788 5.10248C0.692788 5.68929 0.936198 6.49574 1.34739 7.42168C1.75427 8.33789 2.30842 9.33442 2.89338 10.2888C3.86554 11.875 4.91114 13.3259 5.47776 14.0691C5.61302 13.8819 5.79282 13.6304 6.00357 13.3295C6.48334 12.6444 7.12248 11.7044 7.76109 10.6835C8.40041 9.66147 9.03551 8.56416 9.50966 7.56331C9.99067 6.54799 10.2814 5.68137 10.2814 5.10248C10.2814 2.66801 8.14894 0.670398 5.48708 0.670398ZM5.48708 14.637L5.76809 14.833L5.49848 15.195L5.2143 14.8436C4.77695 14.3028 3.48334 12.5656 2.29751 10.6308C1.7044 9.66311 1.13402 8.63919 0.710889 7.68637C0.292079 6.74328 0 5.83211 0 5.10248C0 2.27115 2.47069 0 5.48708 0C8.50347 0 10.9742 2.27115 10.9742 5.10248C10.9742 5.84003 10.6223 6.82345 10.1394 7.84269C9.64969 8.87641 8.99961 9.99818 8.35376 11.0307C7.7072 12.0643 7.06117 13.0143 6.57707 13.7056C6.33491 14.0513 6.13303 14.3327 5.99153 14.5279C5.92077 14.6254 5.8651 14.7015 5.82703 14.7532L5.78342 14.8124L5.77211 14.8276L5.7684 14.8326C5.76834 14.8327 5.76809 14.833 5.48708 14.637ZM5.48708 3.53076C4.25883 3.53076 3.26313 4.49428 3.26313 5.68284C3.26313 6.8714 4.25883 7.83492 5.48708 7.83492C6.71534 7.83492 7.71103 6.8714 7.71103 5.68284C7.71103 4.49428 6.71534 3.53076 5.48708 3.53076ZM2.57034 5.68284C2.57034 4.12403 3.87621 2.86037 5.48708 2.86037C7.09795 2.86037 8.40382 4.12403 8.40382 5.68284C8.40382 7.24165 7.09795 8.50531 5.48708 8.50531C3.87621 8.50531 2.57034 7.24165 2.57034 5.68284Z" fill="#A62E41"/>
</svg>

<svg width="11" height="16" fill="none" xmlns="http://www.w3.org/2000/svg"><path fill-rule="evenodd" clip-rule="evenodd" d="M5.487.67C2.825.67.693 2.668.693 5.102c0 .587.243 1.394.654 2.32.407.916.961 1.912 1.546 2.867a48.472 48.472 0 002.585 3.78 62.425 62.425 0 002.283-3.386c.64-1.022 1.275-2.119 1.749-3.12.48-1.015.771-1.882.771-2.46C10.281 2.667 8.15.67 5.487.67zm0 13.967l.281.196-.27.362-.284-.351c-.437-.541-1.73-2.278-2.916-4.213C1.704 9.663 1.134 8.639.71 7.686.292 6.743 0 5.832 0 5.102 0 2.272 2.47 0 5.487 0c3.016 0 5.487 2.271 5.487 5.102 0 .738-.352 1.721-.835 2.74C9.65 8.877 9 9.999 8.354 11.032a63.104 63.104 0 01-2.527 3.722l-.044.06-.01.015-.005.005-.28-.196zm0-11.106c-1.228 0-2.224.963-2.224 2.152 0 1.188.996 2.152 2.224 2.152 1.228 0 2.224-.964 2.224-2.152 0-1.189-.996-2.152-2.224-2.152zM2.57 5.683c0-1.559 1.306-2.823 2.917-2.823 1.61 0 2.917 1.264 2.917 2.823S7.098 8.505 5.487 8.505c-1.61 0-2.917-1.263-2.917-2.822z" fill="#A62E41"/></svg>
